X: 1314
T: Kırda Erik Ağacı
C: Adnan Şeker
O: Turkey
F: http://compmusic.upf.edu/node/140
N: hicaz-zirgule--turku--evfer--kirda_erik--ankara
N: makam= hicaz-zirgule
N: form= turku
N: usul= evfer = 9/8
M: 9/8
L: 1/16
K: C _7/8B ^1/4f ^c ^g
Q: 1/4=228
%%MIDI tuningsystem comma53
A4 B2c2 B2A2 A2A4 | AA A2B2 c2B3AA2 A4  | \
w:   |   | 
A2A2 B2c2 B2A2 d4 d2 | 
w:   | 
dc d2z2 z2cd _B2A2 A2G2  | _B2A4A4_7/8B2 c2B2 A2 | \
w:   |   | 
A2 A4 AAA2 B2c2 B3A  | 
w:   | 
A2A4A2 A2B2 c2B2 A2 | d4d2 dcd2 z2z2 cd_B2  | \
w:   |   | 
A2A2 G2_B2 A4 A4 B2 | 
w:   | 
c2 _B4 A2A4AA A2B2  | c2_B4A2 A4 A2A2 B2 | \
w:   |   | 
c2 _B2A2 d2d4z2 cdc2  | 
w:   | 
_B2A2 G2B2 A4 e2=f2 e2 | d2 c4 d2e4e2 =f2e2  | \
w:   |   | 
d2c2 d2d2 e4 e2=f2 e2 | 
w:   | 
d2 c4 A2_B4A2 B2A2  | G2=F4G2 A4 |
w:   |   | 


